X:1
T:James Gibb editions
T:Se la face ay pale - Dufay
T:#
%%score [ 1 2 3 ]
L:1/8
Q:1/4=120
M:3/4
K:C
V:1 treble nm="Soprano" snm="S"
V:2 treble nm="Alto" snm="A"
V:3 treble-8 nm="Tenor" snm="T"
V:1
"^Se la face ay pale""^Guillaume Dufay\n(1397-1474)" c4 c2 | d4 e2 | (ed c B2 A) | B4 z2 | %4
w: Se la|fa- ce~~ay|pa\- * * * *|le,|
w: Se~~ay pe-|san- te|ma\- * * * *|lle|
w: C'est la|plus re-|a\- * * * *|le|
 c(c B) A2 F | E4 z2 | d4 d2 | e4 d2 | (cBGcBA) | c4 z2 | F2 F F2 F | C6 | z (CDE) F2 | z c2 A F2 | %14
w: La cau- se est ai-|mer,|C'est la|prin- ci-|pa\- * * * * *|le,|Et tant m'est a-|mer|ai\- * * mer,|qu'en la mer|
w: De dueil * a por-|ter,|Ceste a-|mour est|ma\- * * * * *|le|Pour moy de por-|ter;|Car * * soy|se- por- ter|
w: Qu'on puist * re- gar-|der,|De s'a-|mour lei-|a\- * * * * *|le|Ne me puis guar-|der,|Fol * * sui|de~~a- gar- der.|
 GG GG C2 | z2 c2 B2 | A2 (G F2 E) | G2 z2 z2 | e4 d2 | c2 B2 A2 | G2 cc cA | B4 z2 | c4 (AG) | %23
w: me vou- droy- e voir;|Or, scet|bien de * *|voir|La bel-|le a qui|suis Que nul bien a-|voir|Sans el\- *|
w: Ne veult de- vou- loir,|Fors qu'a|son vou\- * *|loir|O- be-|is- se, et|puis Qu'elle a tel poo-|ir,|Sans el\- *|
w: Ne fai- re de- voir|D'a- mours|re- ce\- * *|voir|Fors d'el-|le, je cu-|is; Se ne veil dou-|loir,|Sans el\- *|
 (F2 E2) D2 | C2 z (GEC) | z (GEG) z c- | (BA) (3c z C (EF) | %27
w: le * ne|puis. * * *|||
w: le * ne|puis. * * *|||
w: le * ne|puis. * * *|||
[Q:1/4=119] (G[Q:1/4=117]A[Q:1/4=116]E[Q:1/4=114]D[Q:1/4=112]E[Q:1/4=111]F) | %28
w: |
w: |
w: |
[Q:1/4=109] (G[Q:1/4=108]C[Q:1/4=106] c)[Q:1/4=105] (G[Q:1/4=104]A[Q:1/4=102]B) |[Q:1/4=102] c8 |] %30
w: ||
w: ||
w: ||
V:2
 C4 C2 | B,4 A,2 | (CD E2 F2) | (E2 D4) | C2 G, A,2 B, | C4 z2 | G4 G2 | C4 B,2 | (CDEF D2) | %9
w: Se la|fa- ce~~ay|pa\- * * *|le, *|La cau- se~est ai-|mer,|C'est la|prin- ci-|pa\- * * * *|
w: Se~~ay pe-|san- te|ma\- * * *|lle *|De dueil a por-|ter,|Ceste a-|mour est|ma\- * * * *|
w: C'est la|plus re-|a\- * * *|le *|Qu'on puist re- gar-|der,|De s'a-|mour lei-|a\- * * * *|
 C4 z2 | A2 A A2 A | G4 z C- | (DE F2 D2) | C2 z2 D2 | C2 G,2 GG | GG C2 z D | C2 _B,2 A,2 | %17
w: le,|Et tant m'est a-|mer ai\-||mer, qu'en|la mer me vou-|droy- e voir; Or,|scet bien de|
w: le|Pour moy de por-|ter; Car||soy se-|por- ter Ne veult|de- vou- loir, Fors|qu'a son vou-|
w: le|Ne me puis guar-|der, Fol||sui de~~a-|gar- der. Ne fai-|re de- voir D'a-|mours re- ce-|
 G,2 z2 z2 | C4 B,2 | C4 D2 | (E2 C2) z2 | GG EF G2 | z2 C2 (DE) | (FE C) (G,A,B,) | C E2 (C GE | %25
w: voir|La bel-|le~a qui|suis *|Que nul bien a- voir|Sans el\- *|le * * ne * *|puis. * * * *|
w: loir|O- be-|is- se,|et puis|Qu'elle a tel poo- ir,|Sans el\- *|le * * ne * *|puis. * * * *|
w: voir|Fors d'el-|le, je|cu- is;|Se ne veil dou- loir,|Sans el\- *|le * * ne * *|puis. * * * *|
 C z (GEGF) | D2 C2 z D | C A,2) (B,CA,) | (G, C2 E) D2 | C8 |] %30
w: |||||
w: |||||
w: |||||
V:3
 C4 C2 | G4 c2 | z2 (g2 d2) | (g3 ^f3) | g (e2 c) d2 | c2 C4 | z2 G4 | z (gec) z G | (AB) (c2 G2) | %9
w: Se la|fa- ce~~ay|pa\- *|le, *|La cau- se est|ai- mer,|C'est|la * * prin-|ci\- * pa\- *|
w: Se~~ay pe-|san- te|ma\- *|lle *|De dueil * a|por- ter,|Ceste|a\- * * mour|est * ma\- *|
w: C'est la|plus re-|a\- *|le *|Qu'on puist * re-|gar- der,|De|s'a\- * * mour|lei\- * a\- *|
 C2 z2 z2 | d4 d2 | e4 a2 | a2 d4 | _e2 c2 B2 | (_e2 d2) z2 | c2 g g2 f | (e2 d2) ^c2 | d4 g2 | %18
w: le,|Et tant|m'est a-|mer ai-|mer, qu'en la|mer me;|Or, scet bien de|voir * La|bel- le|
w: le|Pour moy|de por-|ter; Car|soy se- por-|ter *|Fors qu'a son vou-|loir * O-|be- is-|
w: le|Ne me|puis guar-|der, Fol|sui de~a- gar-|der. *|D'a- mours re- ce-|voir * Fors|d'el- le,|
 e2 c2 G2 | z g2 (e fe) | c2 (ge c2) | G2 z2 (G2 | c2) z (CFE) | (D2 C2) F2 | C4 z g | %25
w: a qui suis|Que nul * *|bien a\- * *|voir, Sans|* el\- * *|le * ne|puis. *|
w: se, et puis|Qu'elle a * *|tel poo\- * *|ir, Sans|* el\- * *|le * ne|puis. *|
w: je cu- is;|Se ne * *|veil dou\- * *|loir, Sans|* el\- * *|le * ne|puis. *|
 (ec) z g e2- | f2 z g2 (f | e2) (cfec) | (de c2 G2) | C8 |] %30
w: |||||
w: |||||
w: |||||

